web/packages/design/src/ResourceIcon/assets/vendr.svg

<svg width="72" height="72" viewBox="0 0 72 72" fill="none" xmlns="http://www.w3.org/2000/svg">
<path fill-rule="evenodd" clip-rule="evenodd" d="M26.3024 3.43635L49.0232 44.7911C50.9393 48.2789 51.2065 52.5427 49.7428 56.2774L43.8863 71.2211C43.6321 71.8701 42.9388 72.1734 42.338 71.8987C42.1034 71.7915 41.9072 71.605 41.7787 71.3676L4.20161 1.91991C3.87246 1.31145 4.0622 0.529957 4.62543 0.1743C4.80633 0.0601761 5.01205 0 5.22155 0H20.7151C23.0084 0 25.132 1.30601 26.3024 3.43635ZM61.561 0.0231423C68.5478 0.0231423 68.5478 6.94117 67.3834 10.7146L66.9776 11.9246C65.9717 14.7643 63.8003 20.1222 60.4631 27.9984C60.3631 28.2345 60.1988 28.432 59.9921 28.5645C59.4934 28.8843 58.8655 28.7622 58.498 28.3056L58.3733 28.1188L43.9889 1.95059C43.8806 1.75346 43.8235 1.52841 43.8235 1.29914C43.8235 0.594427 44.3524 0.0231423 45.0047 0.0231423H61.561Z" fill="#5E2DF5"/>
</svg>

<svg xmlns="http://www.w3.org/2000/svg" width="72" height="72" fill="none" viewBox="0 0 72 72"><path fill="#5e2df5" fill-rule="evenodd" d="m26.302 3.436 22.721 41.355c1.916 3.488 2.183 7.752.72 11.486l-5.857 14.944c-.254.65-.947.952-1.548.678a1.2 1.2 0 0 1-.56-.531L4.203 1.92c-.33-.609-.14-1.39.423-1.746C4.806.06 5.012 0 5.222 0h15.493c2.293 0 4.417 1.306 5.587 3.436M61.561.023c6.987 0 6.987 6.918 5.822 10.692l-.405 1.21q-1.51 4.26-6.515 16.073c-.1.236-.264.434-.47.566-.5.32-1.128.198-1.495-.258l-.125-.187L43.99 1.95a1.36 1.36 0 0 1-.165-.652c0-.705.528-1.276 1.18-1.276z" clip-rule="evenodd"/></svg>
